docs/img/card-product/basket-1.svg

<svg width="60" height="56" viewBox="0 0 60 56" fill="none" xmlns="http://www.w3.org/2000/svg">
    <path d="M0 5C0 2.23858 2.23858 0 5 0H60V51C60 53.7614 57.7614 56 55 56H0V5Z" fill="transparent"/>
    <path fill-rule="evenodd" clip-rule="evenodd" d="M16 16C16 15.4477 16.4477 15 17 15H21.7273C22.2088 15 22.6219 15.3431 22.7103 15.8164L23.7405 21.3332H43C43.2959 21.3332 43.5765 21.4642 43.7665 21.691C43.9565 21.9178 44.0364 22.2171 43.9845 22.5084L42.0924 33.1425C41.9446 33.9397 41.5376 34.6697 40.9261 35.1972C40.3158 35.7238 39.5413 36.0133 38.7361 35.9995H27.2676C26.4624 36.0133 25.6878 35.7238 25.0775 35.1972C24.4662 34.6698 24.0592 33.94 23.9114 33.143C23.9113 33.1428 23.9114 33.1431 23.9114 33.143L21.9355 22.5625C21.9286 22.5331 21.923 22.5032 21.9188 22.4728L20.8967 17H17C16.4477 17 16 16.5523 16 16ZM24.114 23.3332L25.8778 32.778C25.9462 33.1471 26.1312 33.4648 26.384 33.6829C26.6351 33.8996 26.9376 34.0059 27.2376 33.9997L27.2582 33.9995H38.7455L38.766 33.9997C39.0661 34.0059 39.3686 33.8996 39.6197 33.6829C39.8717 33.4654 40.0564 33.1488 40.1253 32.7811C40.1255 32.7801 40.1256 32.7791 40.1258 32.778L41.8064 23.3332H24.114Z" fill="#397345"/>
    <path fill-rule="evenodd" clip-rule="evenodd" d="M37 42C37 40.8954 37.8954 40 39 40C40.1046 40 41 40.8954 41 42C41 43.1046 40.1046 44 39 44C37.8954 44 37 43.1046 37 42Z" fill="#397345"/>
    <path fill-rule="evenodd" clip-rule="evenodd" d="M25 42C25 40.8954 25.8954 40 27 40C28.1046 40 29 40.8954 29 42C29 43.1046 28.1046 44 27 44C25.8954 44 25 43.1046 25 42Z" fill="#397345"/>
    <path fill-rule="evenodd" clip-rule="evenodd" d="M59 1H5C2.79086 1 1 2.79086 1 5V55H55C57.2091 55 59 53.2091 59 51V1ZM5 0C2.23858 0 0 2.23858 0 5V56H55C57.7614 56 60 53.7614 60 51V0H5Z" fill="#397345"/>
</svg>

<svg width="60" height="56" fill="none" xmlns="http://www.w3.org/2000/svg"><path d="M0 5a5 5 0 015-5h55v51a5 5 0 01-5 5H0V5z" fill="transparent"/><path fill-rule="evenodd" clip-rule="evenodd" d="M16 16a1 1 0 011-1h4.727a1 1 0 01.983.816l1.03 5.517H43a1 1 0 01.984 1.175l-1.892 10.634a3.57 3.57 0 01-1.166 2.055 3.264 3.264 0 01-2.19.802H27.268a3.264 3.264 0 01-2.19-.802 3.57 3.57 0 01-1.167-2.054l-1.976-10.58a.979.979 0 01-.016-.09L20.897 17H17a1 1 0 01-1-1zm8.114 7.333l1.764 9.445c.068.37.253.687.506.905.251.217.554.323.854.317h11.528c.3.006.603-.1.854-.317a1.57 1.57 0 00.505-.902v-.003l1.681-9.445H24.114zM37 42a2 2 0 114 0 2 2 0 01-4 0zm-12 0a2 2 0 114 0 2 2 0 01-4 0z" fill="#397345"/><path fill-rule="evenodd" clip-rule="evenodd" d="M59 1H5a4 4 0 00-4 4v50h54a4 4 0 004-4V1zM5 0a5 5 0 00-5 5v51h55a5 5 0 005-5V0H5z" fill="#397345"/></svg>
